;FLAVOR:UltiGCode
;TIME:8269
;MATERIAL:35815
;MATERIAL2:0
;NOZZLE_DIAMETER:0.8
;MINX:67.082
;MINY:46.08
;MINZ:0.53
;MAXX:155.918
;MAXY:176.92
;MAXZ:33.93
;TARGET_MACHINE.NAME:Ultimaker 2+
;Generated with Cura_SteamEngine 5.7.2
M82 ;absolute extrusion mode
G0 F3000 Y50 ;avoid prime blob
G92 E0
G92 E0
G10
;LAYER_COUNT:168
;LAYER:0
M107
G0 F7200 X69.329 Y47.814 Z0.53
;TYPE:SKIRT
G11
G1 F1800 X73.261 Y46.08 E1.82208
G1 X150.22 Y46.08 E34.4527
G1 X154.184 Y48.327 E36.38468
G1 X155.918 Y52.259 E38.20677
G1 X155.918 Y171.447 E88.74248
G1 X154.222 Y174.157 E90.09799
G1 X151.806 Y176.323 E91.47378
G1 X149.356 Y176.92 E92.54297
G1 X72.555 Y176.92 E125.1066
G1 X69.845 Y175.224 E126.46211
G1 X67.679 Y172.808 E127.83789
G1 X67.082 Y170.358 E128.90709
G1 X67.082 Y51.778 E179.18501
G1 X69.329 Y47.814 E181.11699
G0 F7200 X69.895 Y48.439
G1 F1800 X73.43 Y46.88 E182.75512
G1 X150.008 Y46.88 E215.22419
G1 X153.559 Y48.893 E216.95491
G1 X155.118 Y52.428 E218.59304
G1 X155.118 Y171.217 E268.95958
G1 X153.605 Y173.635 E270.16897
G1 X151.42 Y175.594 E271.41324
G1 X149.261 Y176.12 E272.35544
G1 X72.785 Y176.12 E304.78126
G1 X70.367 Y174.607 E305.99066
G1 X68.408 Y172.422 E307.23493
G1 X67.882 Y170.263 E308.17712
G1 X67.882 Y51.99 E358.32487
G1 X69.895 Y48.439 E360.05559
G0 F7200 X70.461 Y49.064
G1 F1800 X73.599 Y47.68 E361.50976
G1 X149.796 Y47.68 E393.81729
G1 X152.934 Y49.459 E395.34674
G1 X154.318 Y52.597 E396.80092
G1 X154.318 Y170.987 E446.99828
G1 X152.988 Y173.113 E448.06156
G1 X151.034 Y174.865 E449.17432
G1 X149.166 Y175.32 E449.9895
G1 X73.015 Y175.32 E482.27753
G1 X70.889 Y173.99 E483.34081
G1 X69.137 Y172.036 E484.45357
G1 X68.682 Y170.168 E485.26876
G1 X68.682 Y52.202 E535.28634
G1 X70.461 Y49.064 E536.81579
G0 F7200 X71.026 Y49.689
G1 F1800 X73.768 Y48.48 E538.0864
G1 X149.585 Y48.48 E570.23281
G1 X152.309 Y50.024 E571.56041
G1 X153.518 Y52.766 E572.83102
G1 X153.518 Y170.757 E622.8592
G1 X152.371 Y172.591 E623.77637
G1 X150.648 Y174.136 E624.75761
G1 X149.071 Y174.52 E625.4458
G1 X73.245 Y174.52 E657.59602
G1 X71.411 Y173.373 E658.51319
G1 X69.866 Y171.65 E659.49444
G1 X69.482 Y170.073 E660.18262
G1 X69.482 Y52.413 E710.07046
G1 X71.026 Y49.689 E711.39807
G0 F7200 X71.592 Y50.314
G1 F1800 X73.937 Y49.28 E712.48472
G1 X149.373 Y49.28 E744.46958
G1 X151.684 Y50.59 E745.59592
G1 X152.718 Y52.935 E746.68257
G1 X152.718 Y170.529 E796.54243
G1 X151.754 Y172.069 E797.31276
G1 X150.262 Y173.407 E798.16249
G1 X148.976 Y173.72 E798.72367
G1 X73.473 Y173.72 E830.73695
G1 X71.933 Y172.756 E831.50728
G1 X70.595 Y171.264 E832.35701
G1 X70.282 Y169.978 E832.91819
G1 X70.282 Y52.625 E882.67586
G1 X71.592 Y50.314 E883.80221
G0 F7200 X72.158 Y50.939
G1 F1800 X71.082 Y52.837 E884.72728
G1 X71.082 Y169.884 E934.35521
G1 X71.324 Y170.88 E934.7898
G1 X72.451 Y172.136 E935.5053
G1 X73.703 Y172.92 E936.13164
G1 X148.882 Y172.92 E968.00754
G1 X149.878 Y172.678 E968.44213
G1 X151.134 Y171.551 E969.15763
G1 X151.918 Y170.299 E969.78397
G1 X151.918 Y53.104 E1019.47465
G1 X151.059 Y51.156 E1020.37734
G1 X149.161 Y50.08 E1021.30241
G1 X74.106 Y50.08 E1053.12573
G1 X72.158 Y50.939 E1054.02843
G0 F7200 X72.724 Y51.564
G1 F1800 X74.275 Y50.88 E1054.74716
G1 X148.949 Y50.88 E1086.40894
G1 X150.434 Y51.722 E1087.13275
G1 X151.118 Y53.273 E1087.85148
G1 X151.118 Y170.069 E1137.37298
G1 X150.514 Y171.033 E1137.85532
G1 X149.495 Y171.948 E1138.436
G1 X148.785 Y172.12 E1138.74575
G1 X73.933 Y172.12 E1170.48299
G1 X72.969 Y171.516 E1170.96533
G1 X72.054 Y170.497 E1171.54601
G1 X71.882 Y169.787 E1171.85576
G1 X71.882 Y53.049 E1221.35267
G1 X72.724 Y51.564 E1222.07648
G0 F7200 X73.289 Y52.189
G1 F1800 X74.444 Y51.68 E1222.61164
G1 X148.738 Y51.68 E1254.1123
G1 X149.809 Y52.287 E1254.63427
G1 X150.318 Y53.442 E1255.16943
G1 X150.318 Y169.839 E1304.52176
G1 X149.897 Y170.512 E1304.85835
G1 X149.091 Y171.236 E1305.31772
G1 X148.691 Y171.32 E1305.49102
G1 X74.163 Y171.32 E1337.09089
G1 X73.49 Y170.899 E1337.42747
G1 X72.766 Y170.093 E1337.88685
G1 X72.682 Y169.693 E1338.06015
G1 X72.682 Y53.26 E1387.42774
G1 X73.289 Y52.189 E1387.9497
G0 F7200 X74.432 Y53.368
G1 F1800 X74.613 Y53.28 E1388.03504
G1 X148.318 Y53.28 E1419.28596
G1 X148.63 Y53.43 E1419.43274
G1 X148.718 Y53.611 E1419.51807
G1 X148.718 Y169.444 E1468.63127
G1 X148.387 Y169.72 E1468.814
G1 X74.558 Y169.72 E1500.11749
G1 X74.282 Y169.389 E1500.30023
G1 X74.282 Y53.68 E1549.36084
G1 X74.432 Y53.368 E1549.50762
G0 F7200 X73.855 Y52.814
G1 F1800 X74.613 Y52.48 E1549.85883
G1 X148.526 Y52.48 E1581.19795
G1 X149.184 Y52.853 E1581.51865
G1 X149.518 Y53.611 E1581.86986
G1 X149.518 Y169.615 E1631.05555
G1 X149.363 Y169.917 E1631.19948
G1 X148.691 Y170.52 E1631.5823
G1 X74.387 Y170.52 E1663.0872
G1 X74.085 Y170.365 E1663.23113
G1 X73.482 Y169.693 E1663.61395
G1 X73.482 Y53.472 E1712.89165
G1 X73.855 Y52.814 E1713.21235
G10
;MESH:Tremendous Snaget (4).stl
G0 F7200 X76.12 Y55.12
G0 X147.916 Y168.92
;TYPE:WALL-OUTER
G11
G1 F1500 X147.916 Y54.08 E1766.77373
G1 X75.08 Y54.08 E1800.74444
G1 X75.08 Y168.92 E1854.30581
G1 X147.916 Y168.92 E1888.27652
G0 F7200 X147.916 Y168.52
G0 X147.116 Y168.12
;TYPE:WALL-INNER
G1 F1800 X147.116 Y54.88 E1933.8896
G1 X75.88 Y54.88 E1962.58346
G1 X75.88 Y168.12 E2008.19653
G1 X147.116 Y168.12 E2036.89039
G0 F7200 X146.476 Y167.48
;TYPE:SKIN
G1 F1200 X146.476 Y55.52 E2079.733
G1 X76.52 Y55.52 E2106.50237
G1 X76.52 Y167.48 E2149.34498
G1 X146.476 Y167.48 E2176.11434
G10
G0 F7200 X146.976 Y167.48
G0 X76.092 Y167.908
G0 X76.02 Y166.298
G0 X76.92 Y166.298
G11
G1 F1200 X77.702 Y167.08 E2176.53753
G0 F7200 X78.833 Y167.08
G1 F1200 X76.92 Y165.167 E2177.57278
G0 F7200 X76.92 Y164.035
G1 F1200 X79.965 Y167.08 E2179.22062
G0 F7200 X81.096 Y167.08
G1 F1200 X76.92 Y162.904 E2181.48051
G0 F7200 X76.92 Y161.773
G1 F1200 X82.227 Y167.08 E2184.35247
G0 F7200 X83.359 Y167.08
G1 F1200 X76.92 Y160.641 E2187.83701
G0 F7200 X76.92 Y159.51
G1 F1200 X84.49 Y167.08 E2191.93362
G0 F7200 X85.621 Y167.08
G1 F1200 X76.92 Y158.378 E2196.64255
G0 F7200 X76.92 Y157.247
G1 F1200 X86.753 Y167.08 E2201.9638
G0 F7200 X87.884 Y167.08
G1 F1200 X76.92 Y156.116 E2207.89711
G0 F7200 X76.92 Y154.984
G1 F1200 X89.016 Y167.08 E2214.44302
G0 F7200 X90.147 Y167.08
G1 F1200 X76.92 Y153.853 E2221.60098
G0 F7200 X76.92 Y152.722
G1 F1200 X91.278 Y167.08 E2229.371
G0 F7200 X92.41 Y167.08
G1 F1200 X76.92 Y151.59 E2237.75362
G0 F7200 X76.92 Y150.459
G1 F1200 X93.541 Y167.08 E2246.74829
G0 F7200 X94.672 Y167.08
G1 F1200 X76.92 Y149.328 E2256.35501
G0 F7200 X76.92 Y148.196
G1 F1200 X95.804 Y167.08 E2266.57433
G0 F7200 X96.935 Y167.08
G1 F1200 X76.92 Y147.065 E2277.40571
G0 F7200 X76.92 Y145.933
G1 F1200 X98.067 Y167.08 E2288.84968
G0 F7200 X99.198 Y167.08
G1 F1200 X76.92 Y144.802 E2300.90571
G0 F7200 X76.92 Y143.671
G1 F1200 X100.329 Y167.08 E2313.57379
G0 F7200 X101.461 Y167.08
G1 F1200 X76.92 Y142.539 E2326.85447
G0 F7200 X76.92 Y141.408
G1 F1200 X102.592 Y167.08 E2340.74721
G0 F7200 X103.723 Y167.08
G1 F1200 X76.92 Y140.277 E2355.252
G0 F7200 X76.92 Y139.145
G1 F1200 X104.855 Y167.08 E2370.36939
G0 F7200 X105.986 Y167.08
G1 F1200 X76.92 Y138.014 E2386.09883
G0 F7200 X76.92 Y136.882
G1 F1200 X107.117 Y167.08 E2402.4406
G0 F7200 X108.249 Y167.08
G1 F1200 X76.92 Y135.751 E2419.39469
G0 F7200 X76.92 Y134.62
G1 F1200 X109.38 Y167.08 E2436.96084
G0 F7200 X110.512 Y167.08
G1 F1200 X76.92 Y133.488 E2455.13959
G0 F7200 X76.92 Y132.357
G1 F1200 X111.643 Y167.08 E2473.93039
G0 F7200 X112.774 Y167.08
G1 F1200 X76.92 Y131.226 E2493.33325
G0 F7200 X76.92 Y130.094
G1 F1200 X113.906 Y167.08 E2513.3487
G0 F7200 X115.037 Y167.08
G1 F1200 X76.92 Y128.963 E2533.97621
G0 F7200 X76.92 Y127.831
G1 F1200 X116.168 Y167.08 E2555.21604
G0 F7200 X117.3 Y167.08
G1 F1200 X76.92 Y126.7 E2577.0682
G0 F7200 X76.92 Y125.569
G1 F1200 X118.431 Y167.08 E2599.53242
G0 F7200 X119.563 Y167.08
G1 F1200 X76.92 Y124.437 E2622.60923
G0 F7200 X76.92 Y123.306
G1 F1200 X120.694 Y167.08 E2646.2981
G0 F7200 X121.825 Y167.08
G1 F1200 X76.92 Y122.175 E2670.59902
G0 F7200 X76.92 Y121.043
G1 F1200 X122.957 Y167.08 E2695.51254
G0 F7200 X124.088 Y167.08
G1 F1200 X76.92 Y119.912 E2721.03812
G0 F7200 X76.92 Y118.781
G1 F1200 X125.219 Y167.08 E2747.17575
G0 F7200 X126.351 Y167.08
G1 F1200 X76.92 Y117.649 E2773.92597
G0 F7200 X76.92 Y116.518
G1 F1200 X127.482 Y167.08 E2801.28825
G0 F7200 X128.614 Y167.08
G1 F1200 X76.92 Y115.386 E2829.26313
G0 F7200 X76.92 Y114.255
G1 F1200 X129.745 Y167.08 E2857.85007
G0 F7200 X130.876 Y167.08
G1 F1200 X76.92 Y113.124 E2887.04905
G0 F7200 X76.92 Y111.992
G1 F1200 X132.008 Y167.08 E2916.86064
G0 F7200 X133.139 Y167.08
G1 F1200 X76.92 Y110.861 E2947.28428
G0 F7200 X76.92 Y109.73
G1 F1200 X134.27 Y167.08 E2978.31998
G0 F7200 X135.402 Y167.08
G1 F1200 X76.92 Y108.598 E3009.96827
G0 F7200 X76.92 Y107.467
G1 F1200 X136.533 Y167.08 E3042.22862
G0 F7200 X137.664 Y167.08
G1 F1200 X76.92 Y106.335 E3075.10129
G0 F7200 X76.92 Y105.204
G1 F1200 X138.796 Y167.08 E3108.58629
G0 F7200 X139.927 Y167.08
G1 F1200 X76.92 Y104.073 E3142.68334
G0 F7200 X76.92 Y102.941
G1 F1200 X141.059 Y167.08 E3177.393
G0 F7200 X142.19 Y167.08
G1 F1200 X76.92 Y101.81 E3212.7147
G0 F7200 X76.92 Y100.679
G1 F1200 X143.321 Y167.08 E3248.64846
G0 F7200 X144.453 Y167.08
G1 F1200 X76.92 Y99.547 E3285.19482
G0 F7200 X76.92 Y98.416
G1 F1200 X145.584 Y167.08 E3322.35324
G0 F7200 X146.076 Y166.441
G1 F1200 X76.92 Y97.284 E3359.77817
G0 F7200 X76.92 Y96.153
G1 F1200 X146.076 Y165.31 E3397.20311
G0 F7200 X146.076 Y164.178
G1 F1200 X76.92 Y95.022 E3434.62777
G0 F7200 X76.92 Y93.89
G1 F1200 X146.076 Y163.047 E3472.05271
G0 F7200 X146.076 Y161.915
G1 F1200 X76.92 Y92.759 E3509.47738
G0 F7200 X76.92 Y91.628
G1 F1200 X146.076 Y160.784 E3546.90204
G0 F7200 X146.076 Y159.653
G1 F1200 X76.92 Y90.496 E3584.32698
G0 F7200 X76.92 Y89.365
G1 F1200 X146.076 Y158.521 E3621.75164
G0 F7200 X146.076 Y157.39
G1 F1200 X76.92 Y88.233 E3659.17658
G0 F7200 X76.92 Y87.102
G1 F1200 X146.076 Y156.259 E3696.60152
G0 F7200 X146.076 Y155.127
G1 F1200 X76.92 Y85.971 E3734.02618
G0 F7200 X76.92 Y84.839
G1 F1200 X146.076 Y153.996 E3771.45112
G0 F7200 X146.076 Y152.864
G1 F1200 X76.92 Y83.708 E3808.87578
G0 F7200 X76.92 Y82.577
G1 F1200 X146.076 Y151.733 E3846.30045
G0 F7200 X146.076 Y150.602
G1 F1200 X76.92 Y81.445 E3883.72539
G0 F7200 X76.92 Y80.314
G1 F1200 X146.076 Y149.47 E3921.15005
G0 F7200 X146.076 Y148.339
G1 F1200 X76.92 Y79.183 E3958.57472
G0 F7200 X76.92 Y78.051
G1 F1200 X146.076 Y147.208 E3995.99965
G0 F7200 X146.076 Y146.076
G1 F1200 X76.92 Y76.92 E4033.42432
G0 F7200 X76.92 Y75.788
G1 F1200 X146.076 Y144.945 E4070.84926
G0 F7200 X146.076 Y143.813
G1 F1200 X76.92 Y74.657 E4108.27392
G0 F7200 X76.92 Y73.526
G1 F1200 X146.076 Y142.682 E4145.69859
G0 F7200 X146.076 Y141.551
G1 F1200 X76.92 Y72.394 E4183.12352
G0 F7200 X76.92 Y71.263
G1 F1200 X146.076 Y140.419 E4220.54819
G0 F7200 X146.076 Y139.288
G1 F1200 X76.92 Y70.132 E4257.97286
G0 F7200 X76.92 Y69
G1 F1200 X146.076 Y138.157 E4295.39779
G0 F7200 X146.076 Y137.025
G1 F1200 X76.92 Y67.869 E4332.82246
G0 F7200 X76.92 Y66.737
G1 F1200 X146.076 Y135.894 E4370.2474
G0 F7200 X146.076 Y134.763
G1 F1200 X76.92 Y65.606 E4407.67233
G0 F7200 X76.92 Y64.475
G1 F1200 X146.076 Y133.631 E4445.097
G0 F7200 X146.076 Y132.5
G1 F1200 X76.92 Y63.343 E4482.52193
G0 F7200 X76.92 Y62.212
G1 F1200 X146.076 Y131.368 E4519.9466
G0 F7200 X146.076 Y130.237
G1 F1200 X76.92 Y61.081 E4557.37127
G0 F7200 X76.92 Y59.949
G1 F1200 X146.076 Y129.106 E4594.7962
G0 F7200 X146.076 Y127.974
G1 F1200 X76.92 Y58.818 E4632.22087
G0 F7200 X76.92 Y57.686
G1 F1200 X146.076 Y126.843 E4669.6458
G0 F7200 X146.076 Y125.712
G1 F1200 X76.92 Y56.555 E4707.07074
G0 F7200 X77.416 Y55.92
G1 F1200 X146.076 Y124.58 E4744.22699
G0 F7200 X146.076 Y123.449
G1 F1200 X78.548 Y55.92 E4780.77091
G0 F7200 X79.679 Y55.92
G1 F1200 X146.076 Y122.317 E4816.70251
G0 F7200 X146.076 Y121.186
G1 F1200 X80.81 Y55.92 E4852.02205
G0 F7200 X81.942 Y55.92
G1 F1200 X146.076 Y120.055 E4886.72927
G0 F7200 X146.076 Y118.923
G1 F1200 X83.073 Y55.92 E4920.82416
G0 F7200 X84.204 Y55.92
G1 F1200 X146.076 Y117.792 E4954.30699
G0 F7200 X146.076 Y116.661
G1 F1200 X85.336 Y55.92 E4987.1775
G0 F7200 X86.467 Y55.92
G1 F1200 X146.076 Y115.529 E5019.43568
G0 F7200 X146.076 Y114.398
G1 F1200 X87.599 Y55.92 E5051.08154
G0 F7200 X88.73 Y55.92
G1 F1200 X146.076 Y113.266 E5082.11507
G0 F7200 X146.076 Y112.135
G1 F1200 X89.861 Y55.92 E5112.53655
G0 F7200 X90.993 Y55.92
G1 F1200 X146.076 Y111.004 E5142.3457
G0 F7200 X146.076 Y109.872
G1 F1200 X92.124 Y55.92 E5171.54252
G0 F7200 X93.255 Y55.92
G1 F1200 X146.076 Y108.741 E5200.12729
G0 F7200 X146.076 Y107.61
G1 F1200 X94.387 Y55.92 E5228.09973
G0 F7200 X95.518 Y55.92
G1 F1200 X146.076 Y106.478 E5255.45985
G0 F7200 X146.076 Y105.347
G1 F1200 X96.649 Y55.92 E5282.20791
G0 F7200 X97.781 Y55.92
G1 F1200 X146.076 Y104.216 E5308.34365
G0 F7200 X146.076 Y103.084
G1 F1200 X98.912 Y55.92 E5333.86706
G0 F7200 X100.044 Y55.92
G1 F1200 X146.076 Y101.953 E5358.77814
G0 F7200 X146.076 Y100.821
G1 F1200 X101.175 Y55.92 E5383.0769
G0 F7200 X102.306 Y55.92
G1 F1200 X146.076 Y99.69 E5406.7636
G0 F7200 X146.076 Y98.559
G1 F1200 X103.438 Y55.92 E5429.83798
G0 F7200 X104.569 Y55.92
G1 F1200 X146.076 Y97.427 E5452.30003
G0 F7200 X146.076 Y96.296
G1 F1200 X105.7 Y55.92 E5474.15003
G0 F7200 X106.832 Y55.92
G1 F1200 X146.076 Y95.165 E5495.3877
G0 F7200 X146.076 Y94.033
G1 F1200 X107.963 Y55.92 E5516.01304
G0 F7200 X109.095 Y55.92
G1 F1200 X146.076 Y92.902 E5536.02606
G0 F7200 X146.076 Y91.77
G1 F1200 X110.226 Y55.92 E5555.42675
G0 F7200 X111.357 Y55.92
G1 F1200 X146.076 Y90.639 E5574.21539
G0 F7200 X146.076 Y89.508
G1 F1200 X112.489 Y55.92 E5592.3917
G0 F7200 X113.62 Y55.92
G1 F1200 X146.076 Y88.376 E5609.95568
G0 F7200 X146.076 Y87.245
G1 F1200 X114.751 Y55.92 E5626.90761
G0 F7200 X115.883 Y55.92
G1 F1200 X146.076 Y86.114 E5643.24722
G0 F7200 X146.076 Y84.982
G1 F1200 X117.014 Y55.92 E5658.9745
G0 F7200 X118.146 Y55.92
G1 F1200 X146.076 Y83.851 E5674.08945
G0 F7200 X146.076 Y82.719
G1 F1200 X119.277 Y55.92 E5688.59207
G0 F7200 X120.408 Y55.92
G1 F1200 X146.076 Y81.588 E5702.48264
G0 F7200 X146.076 Y80.457
G1 F1200 X121.54 Y55.92 E5715.76089
G0 F7200 X122.671 Y55.92
G1 F1200 X146.076 Y79.325 E5728.42681
G0 F7200 X146.076 Y78.194
G1 F1200 X123.802 Y55.92 E5740.48067
G0 F7200 X124.934 Y55.92
G1 F1200 X146.076 Y77.063 E5751.92221
G0 F7200 X146.076 Y75.931
G1 F1200 X126.065 Y55.92 E5762.75142
G0 F7200 X127.196 Y55.92
G1 F1200 X146.076 Y74.8 E5772.96858
G0 F7200 X146.076 Y73.669
G1 F1200 X128.328 Y55.92 E5782.57341
G0 F7200 X129.459 Y55.92
G1 F1200 X146.076 Y72.537 E5791.56592
G0 F7200 X146.076 Y71.406
G1 F1200 X130.591 Y55.92 E5799.94609
G0 F7200 X131.722 Y55.92
G1 F1200 X146.076 Y70.274 E5807.71395
G0 F7200 X146.076 Y69.143
G1 F1200 X132.853 Y55.92 E5814.86975
G0 F7200 X133.985 Y55.92
G1 F1200 X146.076 Y68.012 E5821.41322
G0 F7200 X146.076 Y66.88
G1 F1200 X135.116 Y55.92 E5827.34436
G0 F7200 X136.247 Y55.92
G1 F1200 X146.076 Y65.749 E5832.66345
G0 F7200 X146.076 Y64.618
G1 F1200 X137.379 Y55.92 E5837.37022
G0 F7200 X138.51 Y55.92
G1 F1200 X146.076 Y63.486 E5841.46466
G0 F7200 X146.076 Y62.355
G1 F1200 X139.642 Y55.92 E5844.94677
G0 F7200 X140.773 Y55.92
G1 F1200 X146.076 Y61.223 E5847.81656
G0 F7200 X146.076 Y60.092
G1 F1200 X141.904 Y55.92 E5850.07429
G0 F7200 X143.036 Y55.92
G1 F1200 X146.076 Y58.961 E5851.7197
G0 F7200 X146.076 Y57.829
G1 F1200 X144.167 Y55.92 E5852.75278
G0 F7200 X145.298 Y55.92
G1 F1200 X146.076 Y56.698 E5853.1738
G10
;MESH:NONMESH
G0 F600 X146.076 Y56.698 Z0.73
G0 F7200 X146.976 Y56.698
G0 X147.448 Y168.45
