;FLAVOR:UltiGCode
;TIME:11163
;MATERIAL:46462
;MATERIAL2:0
;NOZZLE_DIAMETER:0.8
;MINX:70.58
;MINY:32.609
;MINZ:0.53
;MAXX:152.42
;MAXY:182.448
;MAXZ:82.53
;TARGET_MACHINE.NAME:Ultimaker 2+
;Generated with Cura_SteamEngine 5.7.2
M82 ;absolute extrusion mode
G0 F3000 Y50 ;avoid prime blob
G92 E0
G92 E0
G10
;LAYER_COUNT:411
;LAYER:0
M107
G0 F7200 X70.58 Y38.307 Z0.53
;TYPE:SKIRT
G11
G1 F1800 X72.827 Y34.343 E1.93198
G1 X76.759 Y32.609 E3.75407
G1 X146.722 Y32.609 E33.41838
G1 X150.686 Y34.856 E35.35037
G1 X152.42 Y38.788 E37.17245
G1 X152.42 Y176.975 E95.76374
G1 X150.724 Y179.685 E97.11925
G1 X148.308 Y181.851 E98.49503
G1 X145.858 Y182.448 E99.56423
G1 X76.053 Y182.448 E129.16155
G1 X73.343 Y180.752 E130.51706
G1 X71.177 Y178.336 E131.89285
G1 X70.58 Y175.886 E132.96204
G1 X70.58 Y38.307 E191.29554
G0 F7200 X71.38 Y38.519
G1 F1800 X73.393 Y34.968 E193.02626
G1 X76.928 Y33.409 E194.66438
G1 X146.51 Y33.409 E224.16715
G1 X150.061 Y35.422 E225.89787
G1 X151.62 Y38.957 E227.536
G1 X151.62 Y176.745 E285.95811
G1 X150.107 Y179.163 E287.16751
G1 X147.922 Y181.122 E288.41178
G1 X145.763 Y181.648 E289.35397
G1 X76.283 Y181.648 E318.81349
G1 X73.865 Y180.135 E320.02289
G1 X71.906 Y177.95 E321.26716
G1 X71.38 Y175.791 E322.20935
G1 X71.38 Y38.519 E380.41268
G0 F7200 X72.18 Y38.731
G1 F1800 X73.959 Y35.593 E381.94213
G1 X77.097 Y34.209 E383.3963
G1 X146.298 Y34.209 E412.73753
G1 X149.436 Y35.988 E414.26698
G1 X150.82 Y39.126 E415.72115
G1 X150.82 Y176.515 E473.97409
G1 X149.49 Y178.641 E475.03737
G1 X147.536 Y180.393 E476.15013
G1 X145.668 Y180.848 E476.96532
G1 X76.513 Y180.848 E506.28704
G1 X74.387 Y179.518 E507.35032
G1 X72.635 Y177.564 E508.46308
G1 X72.18 Y175.696 E509.27827
G1 X72.18 Y38.731 E567.35143
G0 F7200 X72.98 Y38.942
G1 F1800 X74.524 Y36.218 E568.67903
G1 X77.266 Y35.009 E569.94964
G1 X146.087 Y35.009 E599.12974
G1 X148.811 Y36.553 E600.45735
G1 X150.02 Y39.295 E601.72795
G1 X150.02 Y176.285 E659.81171
G1 X148.873 Y178.119 E660.72888
G1 X147.15 Y179.664 E661.71013
G1 X145.573 Y180.048 E662.39831
G1 X76.743 Y180.048 E691.58223
G1 X74.909 Y178.901 E692.4994
G1 X73.364 Y177.178 E693.48064
G1 X72.98 Y175.601 E694.16883
G1 X72.98 Y38.942 E752.11225
G0 F7200 X73.78 Y39.154
G1 F1800 X75.09 Y36.843 E753.23859
G1 X77.435 Y35.809 E754.32523
G1 X145.875 Y35.809 E783.34379
G1 X148.186 Y37.119 E784.47014
G1 X149.22 Y39.464 E785.55678
G1 X149.22 Y176.057 E843.47222
G1 X148.256 Y177.597 E844.24255
G1 X146.764 Y178.935 E845.09228
G1 X145.478 Y179.248 E845.65346
G1 X76.971 Y179.248 E874.70043
G1 X75.431 Y178.284 E875.47077
G1 X74.093 Y176.792 E876.3205
G1 X73.78 Y175.506 E876.88168
G1 X73.78 Y39.154 E934.69493
G0 F7200 X74.58 Y39.366
G1 F1800 X74.58 Y175.412 E992.37843
G1 X74.822 Y176.408 E992.81302
G1 X75.949 Y177.664 E993.52852
G1 X77.201 Y178.448 E994.15486
G1 X145.384 Y178.448 E1023.06445
G1 X146.38 Y178.206 E1023.49904
G1 X147.636 Y177.079 E1024.21455
G1 X148.42 Y175.827 E1024.84088
G1 X148.42 Y39.633 E1082.58714
G1 X147.561 Y37.685 E1083.48983
G1 X145.663 Y36.609 E1084.41491
G1 X77.604 Y36.609 E1113.27192
G1 X75.656 Y37.468 E1114.17461
G1 X74.58 Y39.366 E1115.09969
G0 F7200 X75.38 Y39.578
G1 F1800 X76.222 Y38.093 E1115.8235
G1 X77.773 Y37.409 E1116.54223
G1 X145.451 Y37.409 E1145.23771
G1 X146.936 Y38.251 E1145.96152
G1 X147.62 Y39.802 E1146.68025
G1 X147.62 Y175.597 E1204.25733
G1 X147.016 Y176.561 E1204.73967
G1 X145.997 Y177.476 E1205.32034
G1 X145.287 Y177.648 E1205.63009
G1 X77.431 Y177.648 E1234.40104
G1 X76.467 Y177.044 E1234.88337
G1 X75.552 Y176.025 E1235.46405
G1 X75.38 Y175.315 E1235.7738
G1 X75.38 Y39.578 E1293.32629
G0 F7200 X76.18 Y39.789
G1 F1800 X76.787 Y38.718 E1293.84825
G1 X77.942 Y38.209 E1294.38342
G1 X145.24 Y38.209 E1322.91777
G1 X146.311 Y38.816 E1323.43974
G1 X146.82 Y39.971 E1323.9749
G1 X146.82 Y175.367 E1381.38281
G1 X146.399 Y176.04 E1381.71939
G1 X145.593 Y176.764 E1382.17876
G1 X145.193 Y176.848 E1382.35206
G1 X77.661 Y176.848 E1410.98563
G1 X76.988 Y176.427 E1411.32222
G1 X76.264 Y175.621 E1411.78159
G1 X76.18 Y175.221 E1411.95489
G1 X76.18 Y39.789 E1469.37806
G0 F7200 X77.78 Y40.209
G1 F1800 X77.93 Y39.897 E1469.52484
G1 X78.111 Y39.809 E1469.61017
G1 X144.82 Y39.809 E1497.89479
G1 X145.132 Y39.959 E1498.04157
G1 X145.22 Y40.14 E1498.1269
G1 X145.22 Y174.972 E1555.29567
G1 X144.889 Y175.248 E1555.4784
G1 X78.056 Y175.248 E1583.8156
G1 X77.78 Y174.917 E1583.99833
G1 X77.78 Y40.209 E1641.11452
G0 F7200 X76.98 Y40.001
G1 F1800 X77.353 Y39.343 E1641.43522
G1 X78.111 Y39.009 E1641.78643
G1 X145.028 Y39.009 E1670.15924
G1 X145.686 Y39.382 E1670.47994
G1 X146.02 Y40.14 E1670.83115
G1 X146.02 Y175.143 E1728.07242
G1 X145.865 Y175.445 E1728.21635
G1 X145.193 Y176.048 E1728.59917
G1 X77.885 Y176.048 E1757.13776
G1 X77.583 Y175.893 E1757.28169
G1 X76.98 Y175.221 E1757.66451
G1 X76.98 Y40.001 E1814.99779
G10
;MESH:Semi Finalised Holder (2).stl
G0 F7200 X87.895 Y97.846
G0 X89.419 Y142.607
;TYPE:WALL-OUTER
G11
G1 F1500 X89.104 Y142.46 E1815.15992
G1 X88.919 Y142.176 E1815.318
G1 X88.921 Y97.954 E1835.94314
G1 X89.209 Y97.448 E1836.21469
G1 X137.554 Y97.447 E1858.7628
G1 X137.91 Y97.604 E1858.94426
G1 X138.08 Y97.868 E1859.09071
G1 X138.08 Y142.095 E1879.71819
G1 X137.865 Y142.505 E1879.93411
G1 X137.643 Y142.606 E1880.04786
G1 X89.419 Y142.607 E1902.53953
G0 F7200 X89.104 Y142.46
G0 X89.076 Y142.417
G10
G0 X88.845 Y142.894
G0 X137.709 Y143.629
G0 X143.38 Y143.629
G0 X144.42 Y174.448
G11
G1 F1500 X144.42 Y40.608 E1964.96251
G1 X78.58 Y40.608 E1995.67029
G1 X78.58 Y174.448 E2058.09326
G1 X144.42 Y174.448 E2088.80104
G0 F7200 X144.42 Y174.048
G0 X143.62 Y173.648
;TYPE:WALL-INNER
G1 F1800 X143.62 Y41.408 E2142.06731
G1 X79.38 Y41.408 E2167.94318
G1 X79.38 Y173.648 E2221.20945
G1 X143.62 Y173.648 E2247.08533
G10
G0 F7200 X89.402 Y173.408
G0 X89.406 Y143.625
G0 X89.402 Y143.405
G11
G1 F1800 X88.68 Y143.139 E2247.39526
G1 X88.287 Y142.739 E2247.62113
G1 X88.116 Y142.234 E2247.83589
G1 X88.116 Y97.776 E2265.74357
G1 X88.403 Y97.181 E2266.00966
G1 X88.917 Y96.746 E2266.28089
G1 X89.317 Y96.647 E2266.44687
G1 X137.613 Y96.644 E2285.9005
G1 X138.453 Y96.939 E2286.25911
G1 X138.88 Y97.762 E2286.63258
G1 X138.88 Y142.232 E2304.5451
G1 X138.557 Y142.928 E2304.85416
G1 X138.231 Y143.227 E2305.03234
G1 X137.693 Y143.408 E2305.26099
G1 X89.402 Y143.405 E2324.7126
G0 F7200 X89.15 Y144.043
;TYPE:SKIN
G1 F1200 X88.322 Y143.67 E2325.06011
G1 X87.742 Y143.084 E2325.37561
G1 X87.481 Y142.31 E2325.68818
G1 X87.482 Y97.522 E2342.82675
G1 X88.007 Y96.637 E2343.22051
G1 X88.643 Y96.158 E2343.52519
G1 X89.243 Y96.012 E2343.76148
G1 X137.878 Y96.007 E2362.37215
G1 X138.741 Y96.417 E2362.73776
G1 X139.2 Y96.888 E2362.98942
G1 X139.52 Y97.629 E2363.29828
G1 X139.515 Y142.501 E2380.469
G1 X138.979 Y143.486 E2380.89811
G1 X138.309 Y143.909 E2381.20132
G1 X137.756 Y144.046 E2381.41933
G1 X89.15 Y144.043 E2400.0189
G10
G0 F7200 X89.252 Y143.547
G0 X137.709 Y143.629
G0 X143.38 Y143.629
G0 X142.98 Y173.008
G11
G1 F1200 X142.98 Y42.048 E2450.13205
G1 X80.02 Y42.048 E2474.22432
G1 X80.021 Y173.007 E2524.3371
G1 X142.98 Y173.008 E2548.42899
G10
G0 F7200 X143.48 Y173.008
G0 X79.592 Y173.436
G0 X80.421 Y172.062
G11
G1 F1200 X80.966 Y172.607 E2548.72392
G0 F7200 X82.097 Y172.607
G1 F1200 X80.421 Y170.93 E2549.63118
G0 F7200 X80.421 Y169.799
G1 F1200 X83.229 Y172.607 E2551.15077
G0 F7200 X84.36 Y172.607
G1 F1200 X80.421 Y168.668 E2553.28241
G0 F7200 X80.421 Y167.536
G1 F1200 X85.491 Y172.607 E2556.02637
G0 F7200 X86.623 Y172.607
G1 F1200 X80.421 Y166.405 E2559.38267
G0 F7200 X80.421 Y165.273
G1 F1200 X87.754 Y172.607 E2563.35129
G0 F7200 X88.885 Y172.607
G1 F1200 X80.421 Y164.142 E2567.93196
G0 F7200 X80.421 Y163.011
G1 F1200 X90.017 Y172.607 E2573.12496
G0 F7200 X91.148 Y172.607
G1 F1200 X80.421 Y161.879 E2578.93028
G0 F7200 X80.421 Y160.748
G1 F1200 X92.28 Y172.607 E2585.34794
G0 F7200 X93.411 Y172.607
G1 F1200 X80.421 Y159.617 E2592.37764
G0 F7200 X80.421 Y158.485
G1 F1200 X94.542 Y172.607 E2600.01968
G0 F7200 X95.674 Y172.607
G1 F1200 X80.421 Y157.354 E2608.27403
G0 F7200 X80.421 Y156.223
G1 F1200 X96.805 Y172.607 E2617.14045
G0 F7200 X97.936 Y172.607
G1 F1200 X80.421 Y155.091 E2626.61919
G0 F7200 X80.421 Y153.96
G1 F1200 X99.068 Y172.607 E2636.71025
G0 F7200 X100.199 Y172.607
G1 F1200 X80.421 Y152.828 E2647.41365
G0 F7200 X80.421 Y151.697
G1 F1200 X101.331 Y172.607 E2658.72936
G0 F7200 X102.462 Y172.607
G1 F1200 X80.421 Y150.566 E2670.65714
G0 F7200 X80.421 Y149.434
G1 F1200 X103.593 Y172.607 E2683.19723
G0 F7200 X104.725 Y172.607
G1 F1200 X80.421 Y148.303 E2696.34966
G0 F7200 X80.421 Y147.172
G1 F1200 X105.856 Y172.607 E2710.11414
G0 F7200 X106.987 Y172.607
G1 F1200 X80.421 Y146.04 E2724.49094
G0 F7200 X80.421 Y144.909
G1 F1200 X108.119 Y172.607 E2739.48008
G0 F7200 X109.25 Y172.607
G1 F1200 X80.421 Y143.777 E2755.08153
G0 F7200 X80.421 Y142.646
G1 F1200 X110.381 Y172.607 E2771.29505
G0 F7200 X111.514 Y172.608
G1 F1200 X80.421 Y141.515 E2788.12143
G0 F7200 X80.421 Y140.383
G1 F1200 X112.645 Y172.608 E2805.56013
G0 F7200 X113.776 Y172.608
G1 F1200 X80.421 Y139.252 E2823.61089
G0 F7200 X80.421 Y138.121
G1 F1200 X114.908 Y172.608 E2842.27398
G0 F7200 X116.039 Y172.608
G1 F1200 X80.421 Y136.989 E2861.54939
G0 F7200 X80.421 Y135.858
G1 F1200 X87.147 Y142.585 E2865.18953
G0 F7200 X87.076 Y141.382
G1 F1200 X80.421 Y134.726 E2868.79124
G0 F7200 X80.421 Y133.595
G1 F1200 X87.076 Y140.25 E2872.39268
G0 F7200 X87.076 Y139.119
G1 F1200 X80.421 Y132.464 E2875.99412
G0 F7200 X80.421 Y131.332
G1 F1200 X87.076 Y137.988 E2879.59583
G0 F7200 X87.076 Y136.856
G1 F1200 X80.421 Y130.201 E2883.19727
G0 F7200 X80.421 Y129.07
G1 F1200 X87.076 Y135.725 E2886.79871
G0 F7200 X87.076 Y134.594
G1 F1200 X80.421 Y127.938 E2890.40042
G0 F7200 X80.421 Y126.807
G1 F1200 X87.076 Y133.462 E2894.00185
G0 F7200 X87.076 Y132.331
G1 F1200 X80.421 Y125.676 E2897.60329
G0 F7200 X80.421 Y124.544
G1 F1200 X87.076 Y131.199 E2901.20473
G0 F7200 X87.076 Y130.068
G1 F1200 X80.421 Y123.413 E2904.80617
G0 F7200 X80.421 Y122.281
G1 F1200 X87.076 Y128.937 E2908.40788
G0 F7200 X87.076 Y127.805
G1 F1200 X80.421 Y121.15 E2912.00932
G0 F7200 X80.421 Y120.019
G1 F1200 X87.076 Y126.674 E2915.61076
G0 F7200 X87.076 Y125.543
G1 F1200 X80.421 Y118.887 E2919.21247
G0 F7200 X80.421 Y117.756
G1 F1200 X87.076 Y124.411 E2922.81391
G0 F7200 X87.076 Y123.28
G1 F1200 X80.421 Y116.625 E2926.41535
G0 F7200 X80.421 Y115.493
G1 F1200 X87.076 Y122.148 E2930.01679
G0 F7200 X87.076 Y121.017
G1 F1200 X80.421 Y114.362 E2933.61823
G0 F7200 X80.421 Y113.23
G1 F1200 X87.076 Y119.886 E2937.21994
G0 F7200 X87.076 Y118.754
G1 F1200 X80.421 Y112.099 E2940.82138
G0 F7200 X80.421 Y110.968
G1 F1200 X87.076 Y117.623 E2944.42282
G0 F7200 X87.076 Y116.492
G1 F1200 X80.421 Y109.836 E2948.02453
G0 F7200 X80.421 Y108.705
G1 F1200 X87.076 Y115.36 E2951.62597
G0 F7200 X87.076 Y114.229
G1 F1200 X80.421 Y107.574 E2955.22741
G0 F7200 X80.42 Y106.441
G1 F1200 X87.076 Y113.097 E2958.82939
G0 F7200 X87.076 Y111.966
G1 F1200 X80.42 Y105.31 E2962.43137
G0 F7200 X80.42 Y104.179
G1 F1200 X87.076 Y110.835 E2966.03335
G0 F7200 X87.076 Y109.703
G1 F1200 X80.42 Y103.047 E2969.63533
G0 F7200 X80.42 Y101.916
G1 F1200 X87.076 Y108.572 E2973.23731
G0 F7200 X87.076 Y107.441
G1 F1200 X80.42 Y100.785 E2976.83929
G0 F7200 X80.42 Y99.653
G1 F1200 X87.076 Y106.309 E2980.44127
G0 F7200 X87.076 Y105.178
G1 F1200 X80.42 Y98.522 E2984.04325
G0 F7200 X80.42 Y97.391
G1 F1200 X87.076 Y104.047 E2987.64523
G0 F7200 X87.076 Y102.915
G1 F1200 X80.42 Y96.259 E2991.24722
G0 F7200 X80.42 Y95.128
G1 F1200 X87.076 Y101.784 E2994.8492
G0 F7200 X87.076 Y100.652
G1 F1200 X80.42 Y93.996 E2998.45118
G0 F7200 X80.42 Y92.865
G1 F1200 X87.076 Y99.521 E3002.05316
G0 F7200 X87.076 Y98.39
G1 F1200 X80.42 Y91.734 E3005.65514
G0 F7200 X80.42 Y90.602
G1 F1200 X87.133 Y97.315 E3009.28797
G0 F7200 X87.558 Y96.609
G1 F1200 X80.42 Y89.471 E3013.15079
G0 F7200 X80.42 Y88.34
G1 F1200 X88.127 Y96.046 E3017.32126
G0 F7200 X88.898 Y95.686
G1 F1200 X80.42 Y87.208 E3021.90924
G0 F7200 X80.42 Y86.077
G1 F1200 X89.952 Y95.609 E3027.0676
G0 F7200 X91.083 Y95.609
G1 F1200 X80.42 Y84.945 E3032.83829
G0 F7200 X80.42 Y83.814
G1 F1200 X92.215 Y95.609 E3039.22131
G0 F7200 X93.346 Y95.609
G1 F1200 X80.42 Y82.683 E3046.21638
G0 F7200 X80.42 Y81.551
G1 F1200 X94.477 Y95.609 E3053.82378
G0 F7200 X95.609 Y95.609
G1 F1200 X80.42 Y80.42 E3062.04351
G0 F7200 X80.42 Y79.289
G1 F1200 X96.739 Y95.608 E3070.87475
G0 F7200 X97.871 Y95.608
G1 F1200 X80.42 Y78.157 E3080.31858
G0 F7200 X80.42 Y77.026
G1 F1200 X99.002 Y95.608 E3090.37447
G0 F7200 X100.133 Y95.608
G1 F1200 X80.42 Y75.894 E3101.04269
G0 F7200 X80.42 Y74.763
G1 F1200 X101.265 Y95.608 E3112.32323
G0 F7200 X102.396 Y95.608
G1 F1200 X80.42 Y73.632 E3124.21583
G0 F7200 X80.42 Y72.5
G1 F1200 X103.527 Y95.607 E3136.72048
G0 F7200 X104.658 Y95.607
G1 F1200 X80.42 Y71.369 E3149.83719
G0 F7200 X80.42 Y70.238
G1 F1200 X105.79 Y95.607 E3163.56622
G0 F7200 X106.921 Y95.607
G1 F1200 X80.42 Y69.106 E3177.90758
G0 F7200 X80.42 Y67.975
G1 F1200 X108.052 Y95.607 E3192.86099
G0 F7200 X109.184 Y95.607
G1 F1200 X80.42 Y66.844 E3208.42674
G0 F7200 X80.42 Y65.712
G1 F1200 X110.314 Y95.606 E3224.60426
G0 F7200 X111.446 Y95.606
G1 F1200 X80.42 Y64.581 E3241.39411
G0 F7200 X80.42 Y63.449
G1 F1200 X112.577 Y95.606 E3258.79629
G0 F7200 X113.708 Y95.606
G1 F1200 X80.42 Y62.318 E3276.81052
G0 F7200 X80.42 Y61.187
G1 F1200 X114.84 Y95.606 E3295.43708
G0 F7200 X115.971 Y95.606
G1 F1200 X80.42 Y60.055 E3314.67597
G0 F7200 X80.42 Y58.924
G1 F1200 X117.102 Y95.606 E3334.52691
G0 F7200 X118.233 Y95.606
G1 F1200 X80.42 Y57.793 E3354.9899
G0 F7200 X80.42 Y56.661
G1 F1200 X119.365 Y95.606 E3376.06549
G0 F7200 X120.496 Y95.606
G1 F1200 X80.42 Y55.53 E3397.75314
G0 F7200 X80.42 Y54.398
G1 F1200 X121.627 Y95.606 E3420.05311
G0 F7200 X122.759 Y95.606
G1 F1200 X80.42 Y53.267 E3442.96541
G0 F7200 X80.42 Y52.136
G1 F1200 X123.89 Y95.606 E3466.48976
G0 F7200 X125.021 Y95.605
G1 F1200 X80.42 Y51.004 E3490.62617
G0 F7200 X80.42 Y49.873
G1 F1200 X126.152 Y95.605 E3515.37464
G0 F7200 X127.283 Y95.605
G1 F1200 X80.42 Y48.742 E3540.73516
G0 F7200 X80.42 Y47.61
G1 F1200 X128.415 Y95.605 E3566.70827
G0 F7200 X129.546 Y95.605
G1 F1200 X80.42 Y46.479 E3593.29345
G0 F7200 X80.42 Y45.347
G1 F1200 X130.678 Y95.605 E3620.49121
G0 F7200 X131.808 Y95.604
G1 F1200 X80.42 Y44.216 E3648.3005
G0 F7200 X80.42 Y43.085
G1 F1200 X132.94 Y95.604 E3676.7221
G0 F7200 X134.071 Y95.604
G1 F1200 X80.915 Y42.448 E3705.48816
G0 F7200 X82.046 Y42.448
G1 F1200 X135.202 Y95.604 E3734.25422
G0 F7200 X136.334 Y95.604
G1 F1200 X83.178 Y42.448 E3763.02028
G0 F7200 X84.309 Y42.448
G1 F1200 X137.465 Y95.604 E3791.78634
G1 X137.606 Y95.745
G0 F7200 X137.606 Y96.505
G0 X139.02 Y98.059
G0 X139.92 Y98.059
G1 F1200 X142.58 Y100.72 E3793.2261
G0 F7200 X142.58 Y101.851
G1 F1200 X139.92 Y99.191 E3794.6656
G0 F7200 X139.92 Y100.322
G1 F1200 X142.58 Y102.982 E3796.10509
G0 F7200 X142.58 Y104.114
G1 F1200 X139.92 Y101.454 E3797.54458
G0 F7200 X139.92 Y102.585
G1 F1200 X142.58 Y105.245 E3798.98408
G0 F7200 X142.58 Y106.376
G1 F1200 X139.92 Y103.716 E3800.42357
G0 F7200 X139.92 Y104.848
G1 F1200 X142.58 Y107.508 E3801.86306
G0 F7200 X142.58 Y108.639
G1 F1200 X139.92 Y105.979 E3803.30256
G0 F7200 X139.92 Y107.11
G1 F1200 X142.58 Y109.771 E3804.74232
G0 F7200 X142.58 Y110.902
G1 F1200 X139.92 Y108.242 E3806.18181
G0 F7200 X139.92 Y109.373
G1 F1200 X142.58 Y112.033 E3807.62131
G0 F7200 X142.58 Y113.165
G1 F1200 X139.92 Y110.505 E3809.0608
G0 F7200 X139.92 Y111.636
G1 F1200 X142.58 Y114.296 E3810.50029
