;FLAVOR:UltiGCode
;TIME:10268
;MATERIAL:33668
;MATERIAL2:0
;NOZZLE_DIAMETER:0.8
;MINX:66.556
;MINY:41.685
;MINZ:0.53
;MAXX:156.444
;MAXY:173.684
;MAXZ:42.93
;TARGET_MACHINE.NAME:Ultimaker 2+
;Generated with Cura_SteamEngine 5.7.2
M82 ;absolute extrusion mode
G0 F3000 Y50 ;avoid prime blob
G92 E0
G92 E0
G10
;LAYER_COUNT:213
;LAYER:0
M107
G0 F7200 X68.234 Y44.471 Z0.53
;TYPE:SKIRT
G11
G1 F1800 X71.213 Y41.77 E1.70498
G1 X71.616 Y41.685 E1.87961
G1 X80.221 Y41.685 E5.52813
G1 X84.185 Y43.932 E7.46011
G1 X85.919 Y47.864 E9.2822
G1 X85.918 Y58.043 E13.59809
G1 X84.24 Y60.739 E14.94453
G1 X81.32 Y63.386 E16.61559
G1 X80.549 Y63.525 E16.94777
G1 X72.033 Y63.525 E20.55855
G1 X69.334 Y61.836 E21.90853
G1 X66.64 Y58.836 E23.61813
G1 X66.556 Y58.437 E23.79102
G1 X66.556 Y47.167 E28.5695
G1 X68.234 Y44.471 E29.91593
G0 F7200 X68.854 Y44.989
G1 F1800 X67.356 Y47.396 E31.118
G1 X67.356 Y58.437 E35.79938
G1 X69.853 Y61.218 E37.38409
G1 X72.261 Y62.725 E38.58854
G1 X80.549 Y62.725 E42.10265
G1 X80.952 Y62.64 E42.27728
G1 X83.62 Y60.221 E43.80426
G1 X85.118 Y57.814 E45.00633
G1 X85.119 Y48.033 E49.15347
G1 X83.56 Y44.498 E50.7916
G1 X80.009 Y42.485 E52.52232
G1 X71.616 Y42.485 E56.08095
G1 X68.854 Y44.989 E57.66166
G0 F7200 X69.474 Y45.507
G1 F1800 X68.156 Y47.625 E58.71938
G1 X68.156 Y58.132 E63.17434
G1 X70.372 Y60.6 E64.5807
G1 X72.489 Y61.925 E65.63962
G1 X80.549 Y61.925 E69.05706
G1 X83 Y59.703 E70.45977
G1 X84.318 Y57.585 E71.51748
G1 X84.319 Y48.202 E75.49588
G1 X82.935 Y45.064 E76.95005
G1 X79.797 Y43.285 E78.4795
G1 X71.925 Y43.285 E81.81723
G1 X69.474 Y45.507 E83.21994
G0 F7200 X70.094 Y46.025
G1 F1800 X72.234 Y44.085 E84.44464
G1 X79.586 Y44.085 E87.56189
G1 X82.31 Y45.629 E88.8895
G1 X83.519 Y48.371 E90.1601
G1 X83.518 Y57.357 E93.97017
G1 X82.38 Y59.185 E94.88316
G1 X80.24 Y61.125 E96.10787
G1 X72.717 Y61.125 E99.29762
G1 X70.891 Y59.982 E100.21101
G1 X68.956 Y57.826 E101.43934
G1 X68.956 Y47.853 E105.66789
G1 X70.094 Y46.025 E106.58088
G0 F7200 X70.714 Y46.543
G1 F1800 X72.543 Y44.885 E107.62759
G1 X79.374 Y44.885 E110.52393
G1 X81.685 Y46.195 E111.65027
G1 X82.719 Y48.54 E112.73692
G1 X82.718 Y57.128 E116.37823
G1 X81.76 Y58.667 E117.14687
G1 X79.931 Y60.325 E118.19357
G1 X72.947 Y60.325 E121.15479
G1 X71.409 Y59.362 E121.92418
G1 X69.756 Y57.52 E122.97356
G1 X69.756 Y48.082 E126.97527
G1 X70.714 Y46.543 E127.7439
G0 F7200 X71.334 Y47.061
G1 F1800 X72.852 Y45.685 E128.61261
G1 X79.162 Y45.685 E131.28805
G1 X81.06 Y46.761 E132.21312
G1 X81.919 Y48.709 E133.11581
G1 X81.918 Y56.899 E136.58837
G1 X81.14 Y58.149 E137.21265
G1 X79.622 Y59.525 E138.08135
G1 X73.177 Y59.525 E140.81403
G1 X71.927 Y58.742 E141.43942
G1 X70.556 Y57.214 E142.30986
G1 X70.556 Y48.311 E146.08473
G1 X71.334 Y47.061 E146.709
G0 F7200 X71.954 Y47.579
G1 F1800 X73.161 Y46.485 E147.3997
G1 X78.95 Y46.485 E149.85424
G1 X80.435 Y47.327 E150.57805
G1 X81.119 Y48.878 E151.29678
G1 X81.118 Y56.67 E154.60059
G1 X80.52 Y57.631 E155.0805
G1 X79.313 Y58.725 E155.7712
G1 X73.407 Y58.725 E158.27535
G1 X72.445 Y58.122 E158.75674
G1 X71.356 Y56.909 E159.44791
G1 X71.356 Y48.54 E162.99637
G1 X71.954 Y47.579 E163.47628
G0 F7200 X72.574 Y48.097
G1 F1800 X73.47 Y47.285 E163.98898
G1 X78.739 Y47.285 E166.22304
G1 X79.81 Y47.892 E166.745
G1 X80.319 Y49.047 E167.28017
G1 X80.318 Y56.442 E170.41565
G1 X79.9 Y57.113 E170.75084
G1 X79.004 Y57.925 E171.26354
G1 X73.637 Y57.925 E173.53915
G1 X72.964 Y57.504 E173.87573
G1 X72.156 Y56.604 E174.38856
G1 X72.156 Y48.768 E177.71102
G1 X72.574 Y48.097 E178.04621
G0 F7200 X73.756 Y49.163
G1 F1800 X74.087 Y48.885 E178.22949
G1 X78.319 Y48.885 E180.02386
G1 X78.631 Y49.035 E180.17064
G1 X78.719 Y49.216 E180.25597
G1 X78.718 Y56.047 E183.15232
G1 X78.387 Y56.325 E183.33559
G1 X74.032 Y56.325 E185.18211
G1 X73.756 Y55.994 E185.36485
G1 X73.756 Y49.163 E188.26119
G0 F7200 X73.111 Y48.69
G1 F1800 X73.779 Y48.085 E188.64332
G1 X78.527 Y48.085 E190.65647
G1 X79.185 Y48.458 E190.97717
G1 X79.519 Y49.216 E191.32838
G1 X79.518 Y56.218 E194.29723
G1 X79.363 Y56.52 E194.44116
G1 X78.695 Y57.125 E194.82329
G1 X73.861 Y57.125 E196.8729
G1 X73.559 Y56.97 E197.01683
G1 X72.956 Y56.298 E197.39965
G1 X72.956 Y48.992 E200.4974
G1 X73.111 Y48.69 E200.64133
G10
G0 F7200 X136.583 Y47.167
G11
G1 F1800 X138.261 Y44.471 E201.98776
G1 X141.181 Y41.824 E203.65882
G1 X141.952 Y41.685 E203.991
G1 X150.746 Y41.685 E207.71965
G1 X154.71 Y43.932 E209.65164
G1 X156.444 Y47.864 E211.47372
G1 X156.444 Y58.048 E215.79174
G1 X154.755 Y60.747 E217.14172
G1 X151.661 Y63.525 E218.90477
G1 X142.06 Y63.525 E222.97559
G1 X139.361 Y61.836 E224.32558
G1 X136.667 Y58.836 E226.03518
G1 X136.583 Y58.437 E226.20806
G1 X136.583 Y47.167 E230.98654
G0 F7200 X137.383 Y47.396
G1 F1800 X138.881 Y44.989 E232.18861
G1 X141.549 Y42.57 E233.71559
G1 X141.952 Y42.485 E233.89022
G1 X150.534 Y42.485 E237.52899
G1 X154.085 Y44.498 E239.25971
G1 X155.644 Y48.033 E240.89783
G1 X155.644 Y57.82 E245.04752
G1 X154.137 Y60.228 E246.25197
G1 X151.356 Y62.725 E247.83668
G1 X142.288 Y62.725 E251.68151
G1 X139.88 Y61.218 E252.88596
G1 X137.383 Y58.437 E254.47067
G1 X137.383 Y47.396 E259.15205
G0 F7200 X138.183 Y47.625
G1 F1800 X139.501 Y45.507 E260.20976
G1 X141.952 Y43.285 E261.61247
G1 X150.322 Y43.285 E265.16135
G1 X153.46 Y45.064 E266.6908
G1 X154.844 Y48.202 E268.14497
G1 X154.844 Y57.592 E272.12633
G1 X153.519 Y59.709 E273.18526
G1 X151.051 Y61.925 E274.59161
G1 X142.516 Y61.925 E278.21045
G1 X140.399 Y60.6 E279.26938
G1 X138.183 Y58.132 E280.67573
G1 X138.183 Y47.625 E285.1307
G0 F7200 X138.983 Y47.853
G1 F1800 X140.121 Y46.025 E286.04369
G1 X142.261 Y44.085 E287.2684
G1 X150.111 Y44.085 E290.5968
G1 X152.835 Y45.629 E291.92441
G1 X154.044 Y48.371 E293.19501
G1 X154.044 Y57.364 E297.00804
G1 X152.901 Y59.19 E297.92144
G1 X150.745 Y61.125 E299.14976
G1 X142.744 Y61.125 E302.54219
G1 X140.918 Y59.982 E303.45558
G1 X138.983 Y57.826 E304.68391
G1 X138.983 Y47.853 E308.91246
G0 F7200 X139.783 Y48.082
G1 F1800 X140.741 Y46.543 E309.68109
G1 X142.57 Y44.885 E310.7278
G1 X149.899 Y44.885 E313.83529
G1 X152.21 Y46.195 E314.96164
G1 X153.244 Y48.54 E316.04828
G1 X153.244 Y57.134 E319.69214
G1 X152.281 Y58.672 E320.46153
G1 X150.439 Y60.325 E321.51091
G1 X142.974 Y60.325 E324.67607
G1 X141.436 Y59.362 E325.44547
G1 X139.783 Y57.52 E326.49485
G1 X139.783 Y48.082 E330.49656
G0 F7200 X140.583 Y48.311
G1 F1800 X141.361 Y47.061 E331.12083
G1 X142.879 Y45.685 E331.98953
G1 X149.687 Y45.685 E334.87612
G1 X151.585 Y46.761 E335.8012
G1 X152.444 Y48.709 E336.70389
G1 X152.444 Y56.904 E340.17857
G1 X151.661 Y58.154 E340.80397
G1 X150.133 Y59.525 E341.6744
G1 X143.204 Y59.525 E344.61229
G1 X141.954 Y58.742 E345.23769
G1 X140.583 Y57.214 E346.10812
G1 X140.583 Y48.311 E349.88299
G0 F7200 X141.383 Y48.54
G1 F1800 X141.981 Y47.579 E350.36291
G1 X143.188 Y46.485 E351.05361
G1 X149.475 Y46.485 E353.7193
G1 X150.96 Y47.327 E354.44311
G1 X151.644 Y48.878 E355.16184
G1 X151.644 Y56.674 E358.46734
G1 X151.041 Y57.636 E358.94874
G1 X149.828 Y58.725 E359.63991
G1 X143.434 Y58.725 E362.35097
G1 X142.472 Y58.122 E362.83236
G1 X141.383 Y56.909 E363.52353
G1 X141.383 Y48.54 E367.07199
G0 F7200 X142.183 Y48.768
G1 F1800 X142.601 Y48.097 E367.40718
G1 X143.497 Y47.285 E367.91988
G1 X149.264 Y47.285 E370.36509
G1 X150.335 Y47.892 E370.88705
G1 X150.844 Y49.047 E371.42222
G1 X150.844 Y56.444 E374.55855
G1 X150.423 Y57.117 E374.89513
G1 X149.523 Y57.925 E375.40795
G1 X143.664 Y57.925 E377.89217
G1 X142.991 Y57.504 E378.22876
G1 X142.183 Y56.604 E378.74158
G1 X142.183 Y48.768 E382.06404
G0 F7200 X143.783 Y49.163
G1 F1800 X144.114 Y48.885 E382.24732
G1 X148.844 Y48.885 E384.25284
G1 X149.156 Y49.035 E384.39962
G1 X149.244 Y49.216 E384.48496
G1 X149.244 Y56.049 E387.38215
G1 X148.913 Y56.325 E387.56488
G1 X144.059 Y56.325 E389.62298
G1 X143.783 Y55.994 E389.80571
G1 X143.783 Y49.163 E392.70205
G0 F7200 X143.138 Y48.69
G1 F1800 X143.806 Y48.085 E393.08418
G1 X149.052 Y48.085 E395.30849
G1 X149.71 Y48.458 E395.62919
G1 X150.044 Y49.216 E395.98039
G1 X150.044 Y56.22 E398.95009
G1 X149.889 Y56.522 E399.09402
G1 X149.217 Y57.125 E399.47684
G1 X143.888 Y57.125 E401.73634
G1 X143.586 Y56.97 E401.88026
G1 X142.983 Y56.298 E402.26309
G1 X142.983 Y48.992 E405.36083
G1 X143.138 Y48.69 E405.50476
G10
;MESH:New Holder Base.stl
G0 F7200 X144.997 Y50.099
G0 X144.58 Y55.524
;TYPE:WALL-OUTER
G11
G1 F1500 X148.444 Y55.524 E407.30693
G1 X148.444 Y49.684 E410.0307
G1 X144.58 Y49.684 E411.83287
G1 X144.58 Y55.524 E414.55665
G0 F7200 X144.98 Y55.524
G0 X145.38 Y54.724
;TYPE:WALL-INNER
G1 F1800 X147.644 Y54.724 E415.46859
G1 X147.644 Y50.484 E417.17646
G1 X145.38 Y50.484 E418.0884
G1 X145.38 Y54.724 E419.79627
G0 F7200 X146.066 Y54.038
;TYPE:SKIN
G1 F1063.9 X146.958 Y54.038 E420.17686
G1 X146.958 Y51.17 E421.40054
G1 X146.066 Y51.17 E421.78112
G1 X146.066 Y54.038 E423.0048
G10
G0 F7200 X145.52 Y54.038
G0 X143.299 Y55.055
G0 X79.203 Y55.04
G0 X77.916 Y55.524
;TYPE:WALL-OUTER
G11
G1 F1500 X77.916 Y49.684 E425.72858
G1 X74.556 Y49.684 E427.29568
G1 X74.556 Y55.524 E430.01946
G1 X77.916 Y55.524 E431.58656
G0 F7200 X77.916 Y55.124
G0 X77.116 Y54.724
;TYPE:WALL-INNER
G1 F1800 X77.116 Y50.484 E433.29443
G1 X75.356 Y50.484 E434.00336
G1 X75.356 Y54.724 E435.71123
G1 X77.116 Y54.724 E436.42016
G0 F7200 X76.236 Y53.844
;TYPE:SKIN
G1 F705 X76.236 Y51.364 E437.93855
;MESH:NONMESH
G0 F600 X76.236 Y51.364 Z0.73
G0 F7200 X75.496 Y51.364
G0 X75.568 Y54.512
G0 X77.448 Y55.055
G0 X78.076 Y55.684
;TIME_ELAPSED:41.061465
;LAYER:1
M106 S255
;TYPE:WALL-OUTER
;MESH:New Holder Base.stl
G1 F1232 X78.076 Y49.524 E438.92415
G1 X74.344 Y49.524 E439.52127
G1 X74.344 Y55.684 E440.50687
G1 X78.076 Y55.684 E441.10399
G0 F7200 X78.076 Y55.284
G0 X77.276 Y54.884
;TYPE:WALL-INNER
G1 F1338.6 X77.276 Y50.324 E441.83359
G1 X75.144 Y50.324 E442.17471
G1 X75.144 Y54.884 E442.90431
G1 X77.276 Y54.884 E443.24543
G0 F7200 X76.623 Y54.231
;TYPE:SKIN
G1 F1158.5 X76.623 Y50.977 E443.75612
G1 X75.797 Y50.977 E443.88575
G1 X75.797 Y54.231 E444.39643
G1 X76.623 Y54.231 E444.52607
G0 F7200 X76.079 Y53.685
G10
G0 X77.659 Y55.201
G0 X79.363 Y55.201
G0 X143.139 Y55.201
G0 X144.42 Y55.684
;TYPE:WALL-OUTER
G11
G1 F1232 X148.656 Y55.684 E445.20383
G1 X148.656 Y49.524 E446.18943
G1 X144.42 Y49.524 E446.86719
G1 X144.42 Y55.684 E447.85279
G0 F7200 X144.82 Y55.684
G0 X145.22 Y54.884
;TYPE:WALL-INNER
G1 F1338.6 X147.856 Y54.884 E448.27455
G1 X147.856 Y50.324 E449.00415
G1 X145.22 Y50.324 E449.42591
G1 X145.22 Y54.884 E450.15551
G0 F7200 X145.999 Y54.105
;TYPE:SKIN
G1 F859.6 X147.077 Y54.105 E450.3763
G1 X147.077 Y51.103 E450.99117
G1 X145.999 Y51.103 E451.21197
G1 X145.999 Y54.105 E451.82684
G0 F7200 X146.423 Y53.685
G10
;MESH:NONMESH
G0 F600 X146.423 Y53.685 Z0.93
G0 F7200 X144.843 Y55.215
G0 X143.139 Y55.215
G0 X79.363 Y55.201
G0 X78.076 Y55.684
;TIME_ELAPSED:47.561427
;LAYER:2
;TYPE:WALL-OUTER
;MESH:New Holder Base.stl
G11
G1 F1337.5 X78.076 Y49.524 E452.81244
G1 X74.316 Y49.524 E453.41404
G1 X74.316 Y55.684 E454.39964
G1 X78.076 Y55.684 E455.00124
G0 F7200 X78.076 Y55.284
G0 X77.276 Y54.884
;TYPE:WALL-INNER
G1 F2115.5 X77.276 Y50.324 E455.73084
G1 X75.116 Y50.324 E456.07644
G1 X75.116 Y54.884 E456.80604
G1 X77.276 Y54.884 E457.15164
G0 F7200 X76.616 Y54.224
;TYPE:SKIN
G1 F1137.1 X76.616 Y50.984 E457.66874
G1 X75.776 Y50.984 E457.8028
G1 X75.776 Y54.224 E458.31991
G1 X76.616 Y54.224 E458.45397
G0 F7200 X76.079 Y53.685
G10
G0 X77.659 Y55.201
G0 X79.363 Y55.201
G0 X143.139 Y55.201
G0 X144.42 Y55.684
;TYPE:WALL-OUTER
G11
G1 F1337.5 X148.684 Y55.684 E459.13621
G1 X148.684 Y49.524 E460.12181
G1 X144.42 Y49.524 E460.80405
G1 X144.42 Y55.684 E461.78965
G0 F7200 X144.82 Y55.684
G0 X145.22 Y54.884
;TYPE:WALL-INNER
G1 F2115.5 X147.884 Y54.884 E462.21589
G1 X147.884 Y50.324 E462.94549
G1 X145.22 Y50.324 E463.37173
G1 X145.22 Y54.884 E464.10133
G0 F7200 X146.006 Y54.098
;TYPE:SKIN
G1 F847 X147.098 Y54.098 E464.3279
G1 X147.098 Y51.11 E464.94785
G1 X146.006 Y51.11 E465.17442
G1 X146.006 Y54.098 E465.79437
G0 F7200 X146.423 Y53.685
;MESH:NONMESH
G0 F600 X146.423 Y53.685 Z1.13
G0 F7200 X148.214 Y49.995
G0 X148.712 Y49.524
;TIME_ELAPSED:52.581985
;LAYER:3
;TYPE:WALL-OUTER
;MESH:New Holder Base.stl
G1 F1500 X144.42 Y49.524 E466.48109
G1 X144.415 Y55.685 E467.46685
G1 X144.414 Y57.312 E467.72717
G1 X144.047 Y57.524 E467.79498
G1 F1200 X78.421 Y57.521 E478.29514
G1 F1500 X78.079 Y57.18 E478.37242
G1 X78.078 Y55.685 E478.61162
G1 X78.076 Y49.524 E479.59738
G1 X74.288 Y49.524 E480.20346
G1 X74.28 Y53.725 E480.87562
G1 X74.279 Y54.194 E480.95066
G1 X73.949 Y54.519 E481.02476
G1 F1200 X66.92 Y54.524 E482.1494
G1 X66.92 Y173.684 E501.215
G1 X156.08 Y173.684 E515.4806
G1 X156.08 Y54.524 E534.5462
G1 X149.016 Y54.523 E535.67644
G1 F1500 X148.712 Y54.215 E535.74569
G1 X148.712 Y53.725 E535.82409
G1 X148.712 Y49.524 E536.49625
G0 F7200 X148.312 Y49.524
G0 X147.442 Y50.795
G0 X147.485 Y55.753
G0 X148.303 Y55.012
;TYPE:WALL-INNER
G1 F3198 X147.912 Y54.392 E536.61352
G1 X147.912 Y50.324 E537.2644
G1 X145.22 Y50.324 E537.69512
G1 X145.22 Y55.685 E538.55288
G1 X145.22 Y57.28 E538.80808
G1 X144.843 Y57.999 E538.93798
G1 X144.099 Y58.322 E539.06775
G1 F1200 X78.396 Y58.322 E549.58023
G1 F3198 X77.636 Y57.982 E549.71345
G1 X77.276 Y57.336 E549.83177
G1 X77.276 Y55.685 E550.09593
G1 X77.276 Y50.324 E550.95369
G1 X75.087 Y50.324 E551.30393
G1 X75.084 Y54.266 E551.93465
G1 X74.853 Y54.833 E552.03261
G1 X74.367 Y55.223 E552.13232
G1 X74.316 Y55.236 E552.14074
G1 X73.972 Y55.321 E552.19743
G1 F1200 X67.72 Y55.324 E553.19775
G1 X67.72 Y172.884 E572.00735
G1 X155.28 Y172.884 E586.01695
G1 X155.28 Y55.324 E604.82655
G1 X148.829 Y55.321 E605.85871
G1 F3198 X148.684 Y55.236 E605.8856
G1 X148.303 Y55.012 E605.95632
G0 F7200 X147.877 Y55.494
;TYPE:SKIN
;BRIDGE
G1 F1200 X147.123 Y54.474 E606.18021
G1 X147.121 Y52.795 E606.50528
G1 X147.119 Y51.116 E606.84886
G1 X146.013 Y51.117 E607.08127
G1 X146.017 Y54.624 E607.8209
G1 X145.927 Y55.07 E607.90951
G1 X145.881 Y55.685 E608.01122
G1 X145.86 Y55.964 E608.05736
G1 X145.86 Y57.571 E608.30162
G1 X145.285 Y58.466 E608.46332
G1 X144.429 Y58.959 E608.61347
G1 X78.356 Y58.96 E618.65656
G1 X77.788 Y58.833 E618.74503
G1 X77.007 Y58.321 E618.88698
G1 X76.636 Y57.446 E619.03144
G1 X76.636 Y55.685 E619.29911
G1 X76.636 Y55.358 E619.34882
G1 X76.605 Y54.429 E619.49558
G1 X76.608 Y50.992 E620.05653
G1 X75.752 Y50.992 E620.19575
G1 X75.749 Y54.355 E620.74463
G1 X75.372 Y55.218 E620.896
G1 X74.792 Y55.685 E621.01131
G1 X74.634 Y55.812 E621.0427
G1 X74.022 Y55.959 E621.13837
G1 X68.361 Y55.964 E621.99884
G1 X68.36 Y172.244 E639.6734
G1 X154.64 Y172.244 E652.78796
G1 X154.64 Y55.964 E670.46252
G1 X148.665 Y55.955 E671.37072
G1 X148.203 Y55.685 E671.45552
G1 X147.877 Y55.494 E671.51539
G0 F7200 X147.877 Y55.825
G0 X154.001 Y55.464
G0 X154 Y56.363
G1 F1200 X154 Y171.844 E689.0685
G0 F7200 X153 Y171.844
G1 F1200 X153 Y56.362 E706.62176
G0 F7200 X152 Y56.36
G1 F1200 X152 Y171.844 E724.17533
G0 F7200 X151 Y171.844
G1 F1200 X151 Y56.358 E741.7292
G0 F7200 X150 Y56.357
G1 F1200 X150 Y171.844 E759.28323
G0 F7200 X149 Y171.844
G1 F1200 X149 Y56.355 E776.83756
G0 F7200 X148 Y56.031
G1 F1200 X148 Y171.844 E794.44113
G0 F7200 X147 Y171.844
G1 F1200 X147 Y55.533 E812.1204
G1 X147 Y55.532
G1 X147 Y55.07 E812.19063
G0 F7200 X145.432 Y56.057
G0 X145.245 Y57.607
G0 X146 Y58.088
G1 F1200 X146 Y171.844 E829.48154
G0 F7200 X145 Y171.844
G1 F1200 X145 Y59.091 E846.62
G0 F7200 X144 Y59.358
G1 F1200 X144 Y171.844 E863.71787
G0 F7200 X143 Y171.844
G1 F1200 X143 Y59.358 E880.81574
